X:350
T:the Odd Fish
A:Wyresdale, Lancashire
B:H.S.J. Jackson, 1823
L:1/8
M:6/8
O:England
Z:Richard Robinson 
%%TUNEURL: http://www.leeds.ac.uk/music/Info/RRTuneBk/gettune/00000e21.html
%%ID:00000e21
K:C
G |\
c2c cBc | e2c cBc | A2d dec | BAG GAB | \
c2c cBc | e2c cBc | Aag fed | c3  c2  ::
e | \
f2d dcd | e2c cBc | A2d dec | B2G GAB | \
cBc dcd | ede fga | g2c d2e | c3 c2 ::
